X:142
T: WOLLT IHR WISSEN
N: K2239
O: Europa, Mitteleuropa, Deutschland, Rheinland
R: Kinder - Lied, Reigen, Tanz, Nachahmungs - Spiel
M: 3/4
L: 1/16
K: G
G2B2 | d4d4e2d2 | B4G4
G2G2 | c4A4F4 | G8
G4 | d8e2d2 | B4G4
G2G2G2 | c4A4F4 | G8

